X: 507
P: Longways for as many as will
M: 6/8
L: 1/8
K: Gm
V: 1
|: g |\
g2a b2g | f2d f2d | BcB g2d | cAc F2G/F/ |\
V: 2 clef=bass middle=d
z |\
b2a g3 | f2e d2B | d3 B3 | f3 F3 |\
e3 d2c | B2A G2d | edc d2D | G2d g2 :|
|: z |\
b2a g2e | d3 g3 | d3 e2z | d2z F2z |\
e3 d2c | B2A G2d | edc d2D | G2d g2 :|

